Catalina-dark/actions/22/contrast.svg

<?xml version="1.0" encoding="UTF-8" standalone="no"?>
<svg
   xmlns:dc="http://purl.org/dc/elements/1.1/"
   xmlns:cc="http://creativecommons.org/ns#"
   xmlns:rdf="http://www.w3.org/1999/02/22-rdf-syntax-ns#"
   xmlns:svg="http://www.w3.org/2000/svg"
   xmlns="http://www.w3.org/2000/svg"
   xmlns:sodipodi="http://sodipodi.sourceforge.net/DTD/sodipodi-0.dtd"
   xmlns:inkscape="http://www.inkscape.org/namespaces/inkscape"
   viewBox="0 0 22 22"
   id="svg2"
   version="1.1"
   inkscape:version="0.91 r13725"
   sodipodi:docname="contrast.svg">
  <metadata
     id="metadata10">
    <rdf:RDF>
      <cc:Work
         rdf:about="">
        <dc:format>image/svg+xml</dc:format>
        <dc:type
           rdf:resource="http://purl.org/dc/dcmitype/StillImage" />
      </cc:Work>
    </rdf:RDF>
  </metadata>
  <sodipodi:namedview
     pagecolor="#ffffff"
     bordercolor="#666666"
     borderopacity="1"
     objecttolerance="10"
     gridtolerance="10"
     guidetolerance="10"
     inkscape:pageopacity="0"
     inkscape:pageshadow="2"
     inkscape:window-width="640"
     inkscape:window-height="480"
     id="namedview8"
     showgrid="false"
     inkscape:zoom="28.954545"
     inkscape:cx="4.8524333"
     inkscape:cy="11"
     inkscape:current-layer="svg2" />
  <defs
     id="defs3051">
    <style
       type="text/css"
       id="current-color-scheme">
      .ColorScheme-Text {
        color:#f2f2f2
      }
      </style>
  </defs>
  <path
     id="path3199"
     d="m 15.444444,14.111111 -4.444444,0 0,1.333333 4.444444,0 m 1.777778,1.777778 -12.444444,0 12.444444,-12.444444 m -12,2.222222 1.7777779,0 0,-1.777778 1.3333333,0 0,1.777778 1.7777778,0 0,1.333333 -1.7777778,0 0,1.777778 -1.3333333,0 0,-1.777778 -1.7777779,0 M 17.222222,3 4.777778,3 C 3.791111,3 3,3.791111 3,4.777778 L 3,17.222222 A 1.7777778,1.7777778 0 0 0 4.777778,19 l 12.444444,0 A 1.7777778,1.7777778 0 0 0 19,17.222222 L 19,4.777778 C 19,3.791111 18.2,3 17.222222,3 Z"
     inkscape:connector-curvature="0"
     style="fill:#f2f2f2;fill-opacity:1" />
</svg>

<svg width="22" height="22" version="1.1" viewBox="3 3 16 16" xmlns="http://www.w3.org/2000/svg">
<defs>
<style id="current-color-scheme" type="text/css">.ColorScheme-Text {
        color:#f2f2f2
      }</style>
</defs>
<path d="m15.444 14.111h-4.4444v1.3333h4.4444m1.7778 1.7778h-12.444l12.444-12.444m-12 2.2222h1.7778v-1.7778h1.3333v1.7778h1.7778v1.3333h-1.7778v1.7778h-1.3333v-1.7778h-1.7778m12-5.3333h-12.444c-0.98667 0-1.7778 0.79111-1.7778 1.7778v12.444a1.7778 1.7778 0 0 0 1.7778 1.7778h12.444a1.7778 1.7778 0 0 0 1.7778-1.7778v-12.444c0-0.98667-0.8-1.7778-1.7778-1.7778z" fill="#f2f2f2"/>
</svg>
